Origami/48x48/apps/ocenaudio.svg

<svg width="48" height="48" version="1" xmlns="http://www.w3.org/2000/svg">
 <circle cx="24" cy="30" r="17" style="opacity:.2"/>
 <circle cx="24" cy="29" r="17" style="fill:#fdbb28"/>
 <circle cx="32" cy="26" r="3" style="opacity:.1"/>
 <path d="M 24,12 A 17,17 0 0 0 7,29 17,17 0 0 0 7.0214844,29.580078 17,17 0 0 1 24,13 17,17 0 0 1 40.978516,29.419922 17,17 0 0 0 41,29 17,17 0 0 0 24,12 Z" style="fill:#ffffff;opacity:.1"/>
 <path d="m24 7.0002989c-4.5592 0-8.717 1.4180037-11.784 3.7990421-3.0673 2.381139-5.216 5.788173-5.216 9.577752v1.622907c-3.0452 1.53715-5 5.315688-5 10.041702 0 6.048981 3.4545 10.958298 7.9062 10.958298v-22.622907c0-2.838199 1.4746-5.150654 4.0068-7.116373 2.532-1.966117 6.108-3.22144 10.087-3.22144s7.5547 1.255422 10.087 3.221141c2.5322 1.96572 4.0068 4.278174 4.0068 7.116373v22.622907c4.452 0 7.906-4.909317 7.906-10.958297 0-4.726015-1.9548-8.504254-4.9998-10.041404v-1.623206c0-3.789977-2.1486-7.196812-5.2158-9.577851-3.067-2.3809393-7.225-3.798943-11.784-3.798943z" style="opacity:.2"/>
 <path d="m24 6.0002989c-4.5592 0-8.717 1.4180037-11.784 3.7990425-3.0673 2.3811386-5.216 5.7881726-5.216 9.5777516v1.622907c-3.0452 1.53715-5 5.315688-5 10.041702 0 6.048981 3.4545 10.958298 7.9062 10.958298v-22.622907c0-2.838199 1.4746-5.150654 4.0068-7.116373 2.532-1.966117 6.108-3.2214401 10.087-3.2214401s7.5547 1.2554221 10.087 3.2211411c2.5322 1.96572 4.0068 4.278174 4.0068 7.116373v22.622907c4.452 0 7.906-4.909317 7.906-10.958297 0-4.726015-1.9548-8.504254-4.9998-10.041404v-1.623206c0-3.789977-2.1486-7.196812-5.2158-9.5778511-3.067-2.3809392-7.225-3.7989429-11.784-3.7989429z" style="fill:#4f4f4f"/>
 <circle cx="32" cy="25" r="3" style="fill:#3d3d3d"/>
 <path d="M 24,6 C 19.4408,6 15.283797,7.4177893 12.216797,9.7988281 9.1494969,12.179967 7,15.587374 7,19.376953 l 0,1 C 7,16.587374 9.1494969,13.179967 12.216797,10.798828 15.283797,8.4177897 19.4408,7 24,7 28.559,7 32.718156,8.4178888 35.785156,10.798828 38.852356,13.179867 41,16.586976 41,20.376953 l 0,-1 C 41,15.586976 38.852356,12.179867 35.785156,9.7988281 32.718156,7.4178889 28.559,6 24,6 Z M 7,21 c -3.0452,1.53715 -5,5.315002 -5,10.041016 0,0.20221 0.013855,0.400086 0.021484,0.599609 C 2.1309516,27.106232 4.0431801,23.492538 7,22 l 0,-1 z m 34,0 0,1 c 2.954046,1.491236 4.865973,5.100104 4.978516,9.628906 C 45.985849,31.433236 46,31.239267 46,31.041016 46,26.315001 44.045,22.53715 41,21 Z" style="fill:#ffffff;opacity:.1"/>
 <circle cx="16" cy="26" r="3" style="opacity:.1"/>
 <circle cx="16" cy="25" r="3" style="fill:#3d3d3d"/>
 <path d="m30 37c0 3.313709-2.686291 6-6 6s-6-2.657415-6-5.971125z" style="opacity:.1"/>
 <path d="m30 36c0 3.313709-2.686291 6-6 6s-6-2.657415-6-5.971125z" style="fill:#3d3d3d"/>
</svg>

<svg xmlns="http://www.w3.org/2000/svg" width="48" height="48" version="1">
 <circle style="opacity:0.2" cx="24" cy="30" r="17"/>
 <circle style="fill:#fdbb28" cx="24" cy="29" r="17"/>
 <circle style="opacity:0.1" cx="32" cy="26" r="3"/>
 <path style="opacity:0.1;fill:#ffffff" d="M 24,12 A 17,17 0 0 0 7,29 17,17 0 0 0 7.0214844,29.580078 17,17 0 0 1 24,13 17,17 0 0 1 40.978516,29.419922 17,17 0 0 0 41,29 17,17 0 0 0 24,12 Z"/>
 <path style="opacity:0.2" d="m 24,7.0002989 c -4.5592,0 -8.717,1.4180037 -11.784,3.7990421 C 9.1487,13.18048 7,16.587514 7,20.377093 L 7,22 C 3.9548,23.53715 2,27.315688 2,32.041702 2,38.090683 5.4545,43 9.9062,43 l 0,-22.622907 c 0,-2.838199 1.4746,-5.150654 4.0068,-7.116373 2.532,-1.966117 6.108,-3.22144 10.087,-3.22144 3.979,0 7.5547,1.255422 10.087,3.221141 2.5322,1.96572 4.0068,4.278174 4.0068,7.116373 l 0,22.622907 c 4.452,0 7.906,-4.909317 7.906,-10.958297 C 45.9998,27.315389 44.045,23.53715 41,22 l 0,-1.623206 C 41,16.586817 38.8514,13.179982 35.7842,10.798943 32.7172,8.4180037 28.5592,7 24.0002,7 Z"/>
 <path style="fill:#4f4f4f" d="m 24,6.0002989 c -4.5592,0 -8.717,1.4180037 -11.784,3.7990425 C 9.1487,12.18048 7,15.587514 7,19.377093 L 7,21 C 3.9548,22.53715 2,26.315688 2,31.041702 2,37.090683 5.4545,42 9.9062,42 l 0,-22.622907 c 0,-2.838199 1.4746,-5.150654 4.0068,-7.116373 2.532,-1.966117 6.108,-3.2214401 10.087,-3.2214401 3.979,0 7.5547,1.2554221 10.087,3.2211411 2.5322,1.96572 4.0068,4.278174 4.0068,7.116373 l 0,22.622907 c 4.452,0 7.906,-4.909317 7.906,-10.958297 C 45.9998,26.315389 44.045,22.53715 41,21 l 0,-1.623206 C 41,15.586817 38.8514,12.179982 35.7842,9.7989429 32.7172,7.4180037 28.5592,6 24.0002,6 Z"/>
 <circle style="fill:#3d3d3d" cx="32" cy="25" r="3"/>
 <path style="opacity:0.1;fill:#ffffff" d="M 24,6 C 19.4408,6 15.283797,7.4177893 12.216797,9.7988281 9.1494969,12.179967 7,15.587374 7,19.376953 l 0,1 C 7,16.587374 9.1494969,13.179967 12.216797,10.798828 15.283797,8.4177897 19.4408,7 24,7 28.559,7 32.718156,8.4178888 35.785156,10.798828 38.852356,13.179867 41,16.586976 41,20.376953 l 0,-1 C 41,15.586976 38.852356,12.179867 35.785156,9.7988281 32.718156,7.4178889 28.559,6 24,6 Z M 7,21 c -3.0452,1.53715 -5,5.315002 -5,10.041016 0,0.20221 0.013855,0.400086 0.021484,0.599609 C 2.1309516,27.106232 4.0431801,23.492538 7,22 l 0,-1 z m 34,0 0,1 c 2.954046,1.491236 4.865973,5.100104 4.978516,9.628906 C 45.985849,31.433236 46,31.239267 46,31.041016 46,26.315001 44.045,22.53715 41,21 Z"/>
 <circle style="opacity:0.1" cx="16" cy="26" r="3"/>
 <circle style="fill:#3d3d3d" cx="16" cy="25" r="3"/>
 <path style="opacity:0.1" d="m 30,37 c 0,3.313709 -2.686291,6 -6,6 -3.313709,0 -6,-2.657415 -6,-5.971125 z"/>
 <path style="fill:#3d3d3d" d="m 30,36 c 0,3.313709 -2.686291,6 -6,6 -3.313709,0 -6,-2.657415 -6,-5.971125 z"/>
</svg>
